X: 93
T:Missa Fortuna desperata / Credo
N: Derived from Jos0802c-Missa_Fortuna_desperata-Credo.krn
C: Josquin des Prez
%%abc-version 2.0
%%abcx-abcm2ps-target-version 5.9.1 (29 Sep 2008)
%%abc-creator hum2abc beta
%%abcx-conversion-date 2019/02/12 16:15:42
%%abc-edited-by Jesse Rodin
%%abc-edited-by Jesse Rodin; Victoria Chang 2011/04/13
%%abcx-initial-encoding-date 2011/04/13/
%%humdrum-veritas 1899949258
%%humdrum-veritas-data 3395459906
%%linebreak <none>
%%barnumbers 0
L: 1/4
M: 2/1
Q: 1/2=120
%%staves [1 2 3 4]
V: 1 clef=treble
V: 2 clef=treble-8
V: 3 clef=treble-8
V: 4 clef=bass
K: C
[V:1] z8 :
[V:2] f8 | 
[V:3] F8 | 
[V:4] F,8 | 
[V:1] x8 | 
[V:2] f4e4 | 
[V:3] F4G4 | 
[V:4] D,4C,4 | 
[V:1] z8 :
[V:2] c8 | 
[V:3] A8 | 
[V:4] F,8 | 
[V:1] x8 | 
[V:2] z4g4 | 
[V:3] G8 | 
[V:4] C,8 | 
[V:1] F8- :
[V:2] a8- | 
[V:3] F8 | 
[V:4] z4F,4- | 
[V:1] F8 | 
[V:2] a4a4 | 
[V:3] z4c4 | 
[V:4] F,4F,4 | 
[V:1] F8 :
[V:2] a8 | 
[V:3] d4c4- | 
[V:4] D,4F,4 | 
[V:1] E8 | 
[V:2] g6f2 | 
[V:3] c2BAc2d2 | 
[V:4] C,8 | 
[V:1] C8- :
[V:2] g4a4 | 
[V:3] e4f4 | 
[V:4] z4F,4- | 
[V:1] C8 | 
[V:2] f4g4 | 
[V:3] A4G4 | 
[V:4] F,4E,4 | 
[V:1] z8 :
[V:2] c4f4- | 
[V:3] A4F4 | 
[V:4] F,4D,4 | 
[V:1] G8 | 
[V:2] f4e4 | 
[V:3] G8 | 
[V:4] C,8 | 
[V:1] A8- :
[V:2] f8 | 
[V:3] F8 | 
[V:4] z4F,4- | 
[V:1] A8 | 
[V:2] z4f4 | 
[V:3] c4d4 | 
[V:4] F,2E,2D,4 | 
[V:1] A8 :
[V:2] e2d4cB | 
[V:3] e2f4ed | 
[V:4] C,2D,4E,2 | 
[V:1] A8 | 
[V:2] A4c4 | 
[V:3] c2d2A4 | 
[V:4] F,6E,2 | 
[V:1] A8- :
[V:2] d4e2f2- | 
[V:3] f4e2d2- | 
[V:4] D,4C,2D,2- | 
[V:1] A8 | 
[V:2] f2e2c2d2 | 
[V:3] d2c2A3B | 
[V:4] D,2E,2F,4 | 
[V:1] G8- :
[V:2] e3fg2c2- | 
[V:3] c3defg2- | 
[V:4] C,8- | 
[V:1] G8 | 
[V:2] c2BAG2c2 | 
[V:3] g2f4e2 | 
[V:4] C,8 | 
[V:1] F8- :
[V:2] F4A4- | 
[V:3] f4c2c2 | 
[V:4] z4F,4- | 
[V:1] F8- | 
[V:2] A4A4 | 
[V:3] c2c2d4 | 
[V:4] F,4F,4 | 
[V:1] F8 :
[V:2] A4A4 | 
[V:3] c2_B2A4 | 
[V:4] F,4F,4 | 
[V:1] D8 | 
[V:2] _B4G2d2- | 
[V:3] G4_B4 | 
[V:4] G,8 | 
[V:1] D8- :
[V:2] dcA2_B3A | 
[V:3] A4G2_B2- | 
[V:4] F,4G,4 | 
[V:1] D8 | 
[V:2] F4f4 | 
[V:3] B2A2F4 | 
[V:4] D,8 | 
[V:1] E8 :
[V:2] g8- | 
[V:3] c8 | 
[V:4] C,8 | 
[V:1] D8 | 
[V:2] g8 | 
[V:3] z4B4 | 
[V:4] G,8 | 
[V:1] C8 :
[V:2] e4f4 | 
[V:3] c4A4- | 
[V:4] A,4F,4- | 
[V:1] F8- | 
[V:2] c4d4- | 
[V:3] A2G2A4 | 
[V:4] F,2E,2D,2C,2 | 
[V:1] F8 :
[V:2] d2c2A2B2 | 
[V:3] _B4F4 | 
[V:4] _B,,2C,2D,4 | 
[V:1] E8 | 
[V:2] c8 | 
[V:3] G8 | 
[V:4] C,8 | 
[V:1] F8- :
[V:2] A3_Bc2d2- | 
[V:3] F4A4 | 
[V:4] z4F,4 | 
[V:1] F8 | 
[V:2] d2c_BA4 | 
[V:3] _B4c4- | 
[V:4] _B,,4F,4 | 
[V:1] z8 :
[V:2] G2F2f4 | 
[V:3] c4d4 | 
[V:4] E,2F,4_B,,2 | 
[V:1] x8 | 
[V:2] e2f4ed | 
[V:3] c2A2_B4 | 
[V:4] C,2D,4E,2 | 
[V:1] c8- :
[V:2] c8- | 
[V:3] A4G4 | 
[V:4] F,4E,4 | 
[V:1] c8 | 
[V:2] c8 | 
[V:3] A8 | 
[V:4] F,6G,2 | 
[V:1] c8 :
[V:2] F8 | 
[V:3] c8 | 
[V:4] A,8 | 
[V:1] A8 | 
[V:2] f8 | 
[V:3] d8- | 
[V:4] D,8 | 
[V:1] _B8- :
[V:2] g8 | 
[V:3] d8 | 
[V:4] G,8- | 
[V:1] B8 | 
[V:2] d4g4 | 
[V:3] z8 | 
[V:4] G,8 | 
[V:1] d8 :
[V:2] f4_b4 | 
[V:3] z8 | 
[V:4] _B,6A,2 | 
[V:1] c4_B4 | 
[V:2] a4g4- | 
[V:3] z8 | 
[V:4] F,4G,4 | 
[V:1] A8- :
[V:2] g2fef2d2- | 
[V:3] z4d4 | 
[V:4] D,8 | 
[V:1] A8 | 
[V:2] d2c2d2f2- | 
[V:3] e4d2d2 | 
[V:4] A,4z2D,2- | 
[V:1] z8 :
[V:2] fga2d2e2 | 
[V:3] d2c2B2c2- | 
[V:4] D,E,F,2G,2C,2 | 
[V:1] A8 | 
[V:2] A8 | 
[V:3] c2d2c2d2- | 
[V:4] F,6E,D, | 
[V:1] G8- :
[V:2] z8 | 
[V:3] d2e2d2e2- | 
[V:4] G,2C,2B,,2C,2- | 
[V:1] G4F4 | 
[V:2] z4F4 | 
[V:3] edc4B2 | 
[V:4] C,2E,2D,4 | 
[V:1] E8- :
[V:2] G6A2- | 
[V:3] c8- | 
[V:4] C,8 | 
[V:1] E8 | 
[V:2] A2GFG4 | 
[V:3] c8 | 
[V:4] z4C,4 | 
[V:1] F8- :
[V:2] F6G2 | 
[V:3] A4_B4 | 
[V:4] D,4_B,,4 | 
[V:1] F8 | 
[V:2] A3Bc2d2- | 
[V:3] c4A4 | 
[V:4] F,6E,D, | 
[V:1] G8 :
[V:2] d2e3dcB | 
[V:3] B4c4- | 
[V:4] G,4C,4 | 
[V:1] A8 | 
[V:2] A2F2f4 | 
[V:3] c4d4 | 
[V:4] F,6E,D, | 
[V:1] _B8- :
[V:2] _B6c2 | 
[V:3] z4d4- | 
[V:4] G,6A,2 | 
[V:1] B8- | 
[V:2] d2G2g4- | 
[V:3] d4_e4- | 
[V:4] _B,4_E,4- | 
[V:1] B8 :
[V:2] g8 | 
[V:3] e4d4 | 
[V:4] E,2F,2G,4 | 
[V:1] A8 | 
[V:2] f3de2f2 | 
[V:3] z2d2c2d2- | 
[V:4] D,4z2D,2- | 
[V:1] A8 :
[V:2] F3GA3B | 
[V:3] d4c2d2 | 
[V:4] D,C,D,E,F,3E, | 
[V:1] G4F4 | 
[V:2] c4d4 | 
[V:3] _e2c4_B2 | 
[V:4] C,2E,2D,4 | 
[V:1] G8- :
[V:2] G2c3def | 
[V:3] _e3dc_Bc2- | 
[V:4] C,8- | 
[V:1] G8 | 
[V:2] g2f4e2 | 
[V:3] c2_BAG4 | 
[V:4] C,8 | 
[V:1] A8- :
[V:2] f8 | 
[V:3] F8 | 
[V:4] z4F,4- | 
[V:1] A4B4 | 
[V:2] z4f4 | 
[V:3] c4d4 | 
[V:4] F,4D,4 | 
[V:1] c8 :
[V:2] g4a4- | 
[V:3] e4f4- | 
[V:4] C,4F,4- | 
[V:1] c8 | 
[V:2] a2g2e4 | 
[V:3] f2e2c4 | 
[V:4] F,2G,2A,4 | 
[V:1] d8 :
[V:2] d6c2 | 
[V:3] z4f4- | 
[V:4] _B,8 | 
[V:1] c4_B4- | 
[V:2] A4G4 | 
[V:3] f4d4- | 
[V:4] F,4G,4- | 
[V:1] B4A4 :
[V:2] d6c2 | 
[V:3] d4f4- | 
[V:4] G,2F,2D,4- | 
[V:1] A8- | 
[V:2] A8 | 
[V:3] f2e2c2d2- | 
[V:4] D,2E,2F,4 | 
[V:1] A8 :
[V:2] z4A4 | 
[V:3] d2c2A2c2- | 
[V:4] D,4F,4 | 
[V:1] G8 | 
[V:2] e4d2e2 | 
[V:3] c2BAB4 | 
[V:4] E,4z2E,2 | 
[V:1] A8- :
[V:2] c2f3ga2- | 
[V:3] A4A4 | 
[V:4] F,4D,2F,2- | 
[V:1] A8 | 
[V:2] a2gfe4 | 
[V:3] c4c4 | 
[V:4] F,2G,2A,4 | 
[V:1] z8 :
[V:2] z4d4 | 
[V:3] d4B4 | 
[V:4] D,4G,4 | 
[V:1] z8 | 
[V:2] f6g2 | 
[V:3] c4d4 | 
[V:4] F,6E,D, | 
[V:1] A8 :
[V:2] a4A3B | 
[V:3] c2d2c2d2- | 
[V:4] F,2D,2F,3E, | 
[V:1] G4F4 | 
[V:2] c4d4 | 
[V:3] dcc4B2 | 
[V:4] C,2E,2D,4 | 
[V:1] E8- :
[V:2] G4g4- | 
[V:3] c8 | 
[V:4] C,8 | 
[V:1] E8 | 
[V:2] g2g2g4 | 
[V:3] z8 | 
[V:4] z2C4C2 | 
[V:1] C8- :
[V:2] a4g4 | 
[V:3] z4e2f2 | 
[V:4] A,2A,2C4 | 
[V:1] C8 | 
[V:2] e4z2f2- | 
[V:3] g4a4- | 
[V:4] C,4F,4- | 
[V:1] z8 :
[V:2] f2d2e2f2 | 
[V:3] a4g4 | 
[V:4] F,4C,4 | 
[V:1] C8 | 
[V:2] g2e4f2 | 
[V:3] e4z4 | 
[V:4] z2C3B,A,2 | 
[V:1] D8 :
[V:2] g2a4g2 | 
[V:3] z8 | 
[V:4] G,2F,2_B,4 | 
[V:1] F8 | 
[V:2] a8 | 
[V:3] z8 | 
[V:4] A,4F,4 | 
[V:1] E8- :
[V:2] z8 | 
[V:3] z4z2c2- | 
[V:4] C3B,A,G,A,2- | 
[V:1] E8 | 
[V:2] z8 | 
[V:3] c2A2B2c2 | 
[V:4] A,4G,2A,2 | 
[V:1] F8 :
[V:2] z2A3GA2 | 
[V:3] d4c2d2- | 
[V:4] D,3E,F,2D,2 | 
[V:1] G8- | 
[V:2] B2G2c3d | 
[V:3] d4e4 | 
[V:4] G,4C,4 | 
[V:1] G4F4 :
[V:2] efg2a2_b2- | 
[V:3] z2e2d3c | 
[V:4] z8 | 
[V:1] E4D4 | 
[V:2] baa2f2g2 | 
[V:3] A2c2_B4 | 
[V:4] z8 | 
[V:1] E8- :
[V:2] z2c4B2 | 
[V:3] A4z4 | 
[V:4] z2A,4G,2 | 
[V:1] E8 | 
[V:2] c2B2G4 | 
[V:3] z4z2_B2- | 
[V:4] A,2G,2E,2G,2- | 
[V:1] D8 :
[V:2] z8 | 
[V:3] B2A2_B2A2 | 
[V:4] G,2F,2G,2F,2 | 
[V:1] F8- | 
[V:2] z2A4G2 | 
[V:3] F4z4 | 
[V:4] D,2F,4E,2 | 
[V:1] F4E4 :
[V:2] A2B2c4 | 
[V:3] z2F2G2A2- | 
[V:4] D,4C,4 | 
[V:1] D8 | 
[V:2] F4D4 | 
[V:3] AGA2_B2G2 | 
[V:4] D,4_B,,4 | 
[V:1] C8- :
[V:2] E2c3BA2- | 
[V:3] A8- | 
[V:4] A,,8- | 
[V:1] C8 | 
[V:2] A2GFE4 | 
[V:3] A8 | 
[V:4] A,,8 | 
[V:1] D8- :
[V:2] z4F4 | 
[V:3] z4A4 | 
[V:4] z4D,4 | 
[V:1] D8 | 
[V:2] F2F4F2 | 
[V:3] A2A4A2 | 
[V:4] D,2D,4D,2 | 
[V:1] E8- :
[V:2] G2A4^G2 | 
[V:3] c4B4 | 
[V:4] C,2A,,2E,4 | 
[V:1] E8 | 
[V:2] A3Bc3d | 
[V:3] A8 | 
[V:4] A,,4z2A,2- | 
[V:1] z8 :
[V:2] e3fg2e2 | 
[V:3] z2c2B2c2 | 
[V:4] A,2A,2G,2A,2 | 
[V:1] F8 | 
[V:2] a3gfedc | 
[V:3] A2d3cBA | 
[V:4] F,2D,4D,2 | 
[V:1] G8 :
[V:2] B2e2d2e2 | 
[V:3] G3AB2c2- | 
[V:4] E,3F,G,2C,2 | 
[V:1] A8 | 
[V:2] c2f2e2f2 | 
[V:3] c2BAc2d2 | 
[V:4] F,3G,A,2D,2 | 
[V:1] _B8- :
[V:2] d2g2f2g2- | 
[V:3] GA_Bcd2_e2- | 
[V:4] G,3A,_B,2_E,2- | 
[V:1] B4A4 | 
[V:2] g4e2f2 | 
[V:3] ed_B2c2d2 | 
[V:4] E,F,G,2A,2D,2 | 
[V:1] G4F4 :
[V:2] d2e2c2d2- | 
[V:3] _B2c2A2_B2- | 
[V:4] G,2C,2F,2_B,,2- | 
[V:1] F8- | 
[V:2] d4c2d2- | 
[V:3] B4A2_B2- | 
[V:4] B,,C,D,E,F,2_B,,2- | 
[V:1] F8 :
[V:2] d2c4B2 | 
[V:3] B2A2F4 | 
[V:4] B,,2F,3E,D,2 | 
[V:1] E8 | 
[V:2] c8- | 
[V:3] G8 | 
[V:4] C,3B,,C,4 | 
[V:1] F8 ||  
[V:2] c8 ||  
[V:3] F8 ||  
[V:4] F,,8 & F,8 ||  
[V:1] [M:2/1]z8 | 
[V:2] [M:2/1]f4c2d2- | 
[V:3] [M:2/1]z8 | 
[V:4] [M:2/1]F,4F,2F,2 | 
[V:1] z8 | 
[V:2] dcA2_B3A | 
[V:3] z8 | 
[V:4] F,4G,4 | 
[V:1] F8 | 
[V:2] FGABc2d2 | 
[V:3] F4F2F2 | 
[V:4] A,3G,F,E,D,2 | 
[V:1] F4E4 | 
[V:2] A2B2c4- | 
[V:3] F4G4 | 
[V:4] F,2D,2C,4 | 
[V:1] C8 | 
[V:2] c2BAe3f | 
[V:3] A3Bcdc2- | 
[V:4] z4A,,4 | 
[V:1] z4G4 | 
[V:2] gag3fed | 
[V:3] c2BAB4 | 
[V:4] E,4E,4 | 
[V:1] A8 | 
[V:2] c4f4 | 
[V:3] A4z2d2 | 
[V:4] F,6E,D, | 
[V:1] A4A4 | 
[V:2] e2f2e2f2- | 
[V:3] c2d2c2d2- | 
[V:4] A,2D,2A,2D,2 | 
[V:1] A8 | 
[V:2] f2edc2f2 | 
[V:3] d2cBA2d2 | 
[V:4] F,6E,D, | 
[V:1] G8 | 
[V:2] d2e2d2e2 | 
[V:3] B2c2B2c2- | 
[V:4] G,2C,2G,2C,2 | 
[V:1] F8- | 
[V:2] A3Bc2d2 | 
[V:3] cBAGA2_B2 | 
[V:4] F,6E,D, | 
[V:1] F4D4 | 
[V:2] c2d2G2d2- | 
[V:3] A2_B4G2- | 
[V:4] F,2_B,,2_B,4- | 
[V:1] D8 | 
[V:2] d2c_BA2G2 | 
[V:3] G4A2_B2 | 
[V:4] B,2A,G,F,2G,2 | 
[V:1] E4D4 | 
[V:2] g4f4- | 
[V:3] c4F4 | 
[V:4] z2C,2D,3E, | 
[V:1] C4F4- | 
[V:2] f2e2d4 | 
[V:3] A4_B4 | 
[V:4] F,4_B,,4 | 
[V:1] F4E4 | 
[V:2] c4z2c2 | 
[V:3] G8 | 
[V:4] C,8 | 
[V:1] F8 | 
[V:2] c2A2F2c2 | 
[V:3] F4z2c2 | 
[V:4] z2C2C2A,2 | 
[V:1] z8 | 
[V:2] A2F2A3B | 
[V:3] c2A2F2c2 | 
[V:4] F,2C2A,2F,2 | 
[V:1] c8 | 
[V:2] c4F4 | 
[V:3] A2F2A3B | 
[V:4] A,3B,C4 | 
[V:1] c4A4 | 
[V:2] z2f2f2f2 | 
[V:3] c4F4 | 
[V:4] F,4z2F,2 | 
[V:1] _B8 | 
[V:2] d2d2g3f | 
[V:3] z8 | 
[V:4] G,2G,2G,2G,2 | 
[V:1] d4c2_B2 | 
[V:2] d3ef4 | 
[V:3] z8 | 
[V:4] _B,3A,F,4 | 
[V:1] A8 | 
[V:2] z2f4f2 | 
[V:3] z2c4c2 | 
[V:4] z2F,4F,2 | 
[V:1] z4A4 | 
[V:2] f2f2f2f2 | 
[V:3] c2c2c2c2 | 
[V:4] F,2F,2F,2F,2 | 
[V:1] G6F2 | 
[V:2] (3:2:5e4d2c3BA2 | 
[V:3] c8 | 
[V:4] C,8- | 
[V:1] E4E4 | 
[V:2] G2F2G4 | 
[V:3] z4c4 | 
[V:4] C,8 | 
[V:1] F8 | 
[V:2] z8 | 
[V:3] A2A2_B4 | 
[V:4] z8 | 
[V:1] G4A4 | 
[V:2] z4f4 | 
[V:3] G4z2F2 | 
[V:4] z8 | 
[V:1] _B8- | 
[V:2] d6d2 | 
[V:3] _B2_B2_B3G | 
[V:4] z4G,4 | 
[V:1] B4A4 | 
[V:2] e4c4 | 
[V:3] G4z4 | 
[V:4] E,2E,2F,4 | 
[V:1] A4G2F2 | 
[V:2] z2f2e2d2 | 
[V:3] z8 | 
[V:4] D,4z2D,2 | 
[V:1] G8 | 
[V:2] e2dcB4 | 
[V:3] z8 | 
[V:4] C,2D,2E,4 | 
[V:1] A6B2 | 
[V:2] A8 | 
[V:3] c6d2 | 
[V:4] A,,4A,4- | 
[V:1] c4c4 | 
[V:2] z4g4 | 
[V:3] e4e4 | 
[V:4] A,2G,F,E,4 | 
[V:1] d4c2B2- | 
[V:2] a4g2f2- | 
[V:3] f4e2d2- | 
[V:4] D,4z4 | 
[V:1] B2A2A4- | 
[V:2] f2ede2f2- | 
[V:3] d2c_Bc2d2- | 
[V:4] z8 | 
[V:1] A4G4 | 
[V:2] fedcd4 | 
[V:3] dc_BA_B4 | 
[V:4] z8 | 
[V:1] A8 | 
[V:2] e4z2f2 | 
[V:3] A4z2A2 | 
[V:4] z4z2D,2 | 
[V:1] z8 | 
[V:2] e2f2e2f2- | 
[V:3] c2A2c2A2- | 
[V:4] C,2D,2A,,2D,2- | 
[V:1] A6GF | 
[V:2] f2e2d4 | 
[V:3] ABc2F3G | 
[V:4] D,2C,2D,4 | 
[V:1] E8 | 
[V:2] c4z2g2 | 
[V:3] A2c2B4 | 
[V:4] A,,2A,,2E,2E,2 | 
[V:1] C8 | 
[V:2] a2f2g2e2 | 
[V:3] A4z4 | 
[V:4] F,2F,2C,4 | 
[V:1] z4C4 | 
[V:2] f2d2e4 | 
[V:3] z8 | 
[V:4] D,4A,,4 | 
[V:1] D4F4 | 
[V:2] d4z4 | 
[V:3] z2G2A2B2 | 
[V:4] z8 | 
[V:1] E8 | 
[V:2] z2A2B2c2 | 
[V:3] c4z4 | 
[V:4] z8 | 
[V:1] F4G4- | 
[V:2] d4z4 | 
[V:3] z8 | 
[V:4] z2D,2E,2F,2 | 
[V:1] G2F2E2D2 | 
[V:2] z2f2g2a2- | 
[V:3] z2d2c2A2 | 
[V:4] G,2D,2E,2F,2 | 
[V:1] E8 | 
[V:2] a^f^g2a4 | 
[V:3] B4A4 | 
[V:4] E,4A,,4 | 
[V:1] D4F4- | 
[V:2] z2a2a2a2 | 
[V:3] z2A2d2d2 | 
[V:4] z2D,2D,2D,2 | 
[V:1] F2E2D4 | 
[V:2] a2g2f4 | 
[V:3] c4F3G | 
[V:4] F,2C,2D,4 | 
[V:1] C8 | 
[V:2] e8 | 
[V:3] A8 | 
[V:4] A,,4A,,4 | 
[V:1] D8 | 
[V:2] A6B2 | 
[V:3] z4F4 | 
[V:4] D,4D,4 | 
[V:1] E8 | 
[V:2] c4c4 | 
[V:3] G4G4 | 
[V:4] C,8 | 
[V:1] z4F4 | 
[V:2] c4A4 | 
[V:3] A3Bc2d2 | 
[V:4] F,6E,D, | 
[V:1] G4A4 | 
[V:2] G4F2f2- | 
[V:3] B2c2A2d2- | 
[V:4] E,2C,2F,4 | 
[V:1] _B6A2 | 
[V:2] fedcd2A2 | 
[V:3] dc_BA_B2c2- | 
[V:4] _B,,4z2F,2 | 
[V:1] G2F2F4- | 
[V:2] c6d2- | 
[V:3] c_BAGA2_B2- | 
[V:4] E,2F,3E,D,C, | 
[V:1] F4E4 | 
[V:2] d2_B2c4 | 
[V:3] BAGFG4 | 
[V:4] _B,,2D,2C,4 | 
[V:1] F8- | 
[V:2] A2d2c2f2- | 
[V:3] F2_B2A2d2- | 
[V:4] z8 | 
[V:1] F8 | 
[V:2] fec2d4 | 
[V:3] dcA2_B4 | 
[V:4] z8 | 
[V:1] [M:3/1]z12 | 
[V:2] [M:3/1]c8d4 | 
[V:3] [M:3/1]A8B4 | 
[V:4] [M:3/1]F,8D,4 | 
[V:1] z12 | 
[V:2] e6e2e4 | 
[V:3] c6c2c4 | 
[V:4] C,6C,2C,4 | 
[V:1] F12 | 
[V:2] A4a8- | 
[V:3] c8d4 | 
[V:4] F,6E,2D,3C, | 
[V:1] F4E8 | 
[V:2] a8g4 | 
[V:3] d4c4B4 | 
[V:4] D,4A,,4E,4 | 
[V:1] C12 | 
[V:2] a4e4f4 | 
[V:3] A8A4 | 
[V:4] A,,12 | 
[V:1] z4G8 | 
[V:2] g6f2e2d2 | 
[V:3] B8c4 | 
[V:4] E,8E,4 | 
[V:1] A12 | 
[V:2] c4d8 | 
[V:3] A4f6e2 | 
[V:4] F,8D,4- | 
[V:1] A4A8 | 
[V:2] f4e8 | 
[V:3] d8^c4 | 
[V:4] D,4A,8 | 
[V:1] A12 | 
[V:2] d8z4 | 
[V:3] d8z4 | 
[V:4] D,8D,4 | 
[V:1] G12 | 
[V:2] G4G4G4 | 
[V:3] B8c4 | 
[V:4] E,8E,4 | 
[V:1] F12 | 
[V:2] A4d4c4 | 
[V:3] d6c2A4 | 
[V:4] D,6E,2F,4 | 
[V:1] D4D8 | 
[V:2] f4_B4d4 | 
[V:3] _B6A2G2F2 | 
[V:4] _B,,4B,,4B,,4 | 
[V:1] E4D4C4 | 
[V:2] c4d4A4 | 
[V:3] E4F8 | 
[V:4] C,4_B,,4F,4 | 
[V:1] F8E4 | 
[V:2] B4c8 | 
[V:3] F4G8 | 
[V:4] D,4C,8 | 
[V:1] F12 | 
[V:2] A8F4 | 
[V:3] F8z4 | 
[V:4] C4C4A,4 | 
[V:1] z12 | 
[V:2] c8d4 | 
[V:3] A8B4 | 
[V:4] F,6E,2D,4 | 
[V:1] c12 | 
[V:2] e4f8 | 
[V:3] c8c4- | 
[V:4] C,4F,6G,2 | 
[V:1] c4A8 | 
[V:2] e4f6e2 | 
[V:3] c4c8 | 
[V:4] A,4F,4A,4 | 
[V:1] B8d4 | 
[V:2] g8g4 | 
[V:3] d8B4 | 
[V:4] G,8G,4 | 
[V:1] c2B2A8 | 
[V:2] e8f4- | 
[V:3] c8c4 | 
[V:4] A,6G,2F,2E,2 | 
[V:1] z4A4G4- | 
[V:2] f4f4d4 | 
[V:3] d8B4 | 
[V:4] D,4F,4G,4 | 
[V:1] G2F2E4E4 | 
[V:2] e4c4G4 | 
[V:3] c8c4 | 
[V:4] C,8C,4 | 
[V:1] F12 | 
[V:2] _B6c2d4 | 
[V:3] d8_B4- | 
[V:4] _B,,4_B,6A,2 | 
[V:1] G4A8 | 
[V:2] e4f8 | 
[V:3] B4c8 | 
[V:4] G,4F,8 | 
[V:1] _B12 | 
[V:2] f12- | 
[V:3] d8d4 | 
[V:4] _B,,6C,2D,2E,2 | 
[V:1] A4A4G2F2 | 
[V:2] f8d4 | 
[V:3] c4d4B4 | 
[V:4] F,4D,4G,4 | 
[V:1] G8A4- | 
[V:2] e8A4 | 
[V:3] G4c8 | 
[V:4] E,4C,4F,4 | 
[V:1] A2B2c4c4 | 
[V:2] a12- | 
[V:3] d4e8 | 
[V:4] D,4A,8 | 
[V:1] d4c2B4A2 | 
[V:2] a4g4a4 | 
[V:3] f4e4c4 | 
[V:4] D,4E,4F,4 | 
[V:1] A8^G4 | 
[V:2] f4g4e4 | 
[V:3] d4B8 | 
[V:4] D,4E,8 | 
[V:1] A12 | 
[V:2] c4f6g2 | 
[V:3] A8d4 | 
[V:4] A,,4D,6E,2 | 
[V:1] z12 | 
[V:2] a4f4g4 | 
[V:3] c4d4B4 | 
[V:4] F,4D,4E,4 | 
[V:1] A8G2F2 | 
[V:2] c8d4 | 
[V:3] A8A4 | 
[V:4] F,6E,2D,4 | 
[V:1] E12 | 
[V:2] e4g6f2 | 
[V:3] c8B4 | 
[V:4] C,8E,4 | 
[V:1] C8z4 | 
[V:2] f8e4 | 
[V:3] A4G8 | 
[V:4] F,4C,8 | 
[V:1] C4D4F4 | 
[V:2] f4z4F4 | 
[V:3] F8z4 | 
[V:4] F,6E,2D,4 | 
[V:1] E8F4 | 
[V:2] G4A4F4 | 
[V:3] c8d4 | 
[V:4] C,4A,,4D,4 | 
[V:1] G6F2E2D2 | 
[V:2] c4z4g4 | 
[V:3] e6d2c2B2 | 
[V:4] C,6D,2E,4 | 
[V:1] E8D4 | 
[V:2] a8a4 | 
[V:3] c8d4 | 
[V:4] A,,8D,4- | 
[V:1] F6E2D4 | 
[V:2] a8g4 | 
[V:3] d4c4B4 | 
[V:4] D,2E,2F,4G,4 | 
[V:1] C12 | 
[V:2] e8f4 | 
[V:3] A8A4 | 
[V:4] A,4z4A,4 | 
[V:1] D12 | 
[V:2] g6g2g2g2 | 
[V:3] B6B2B2B2 | 
[V:4] G,4G,2G,4G,2 | 
[V:1] E8z4 | 
[V:2] g3fe2d2c2B2 | 
[V:3] c6B2A2G2 | 
[V:4] C,8C,4 | 
[V:1] F4G4A4 | 
[V:2] A4G4c4 | 
[V:3] F4_B4A4 | 
[V:4] D,4E,4F,4 | 
[V:1] _B6A2G2F2 | 
[V:2] _B4f4e4 | 
[V:3] d6c2_B4 | 
[V:4] G,4D,4E,4 | 
[V:1] F8E4 | 
[V:2] c6B2c4 | 
[V:3] A4G8 | 
[V:4] F,4C,8 | 
[V:1] F8- | 
[V:2] [M:2/1]A6GF | 
[V:3] [M:2/1]F4z4 | 
[V:4] [M:2/1]F,6G,2 | 
[V:1] F8 | 
[V:2] F4f4 | 
[V:3] c4d2c2- | 
[V:4] A,2F,2_B,2A,2- | 
[V:1] [M:4/1]z8 | 
[V:2] e2f2g4 | 
[V:3] c2_BAG4 | 
[V:4] A,G,F,4E,2 | 
[V:1] F4F2E2 | 
[V:2] a4f2g2- | 
[V:3] F2c2d2c2- | 
[V:4] F,4D,2E,2 | 
[V:1] C4z2G2 | 
[V:2] gff4e2 | 
[V:3] c2_BAG4 | 
[V:4] F,4C,4 | 
[V:1] A4A2A2 | 
[V:2] f8 | 
[V:3] F2c2d2c2- | 
[V:4] z2F,2D,2F,2- | 
[V:1] A4G4 | 
[V:2] z2f2d2e2 | 
[V:3] c2A2_B2c2 | 
[V:4] F,E,F,2G,2C,2 | 
[V:1] F6D2 | 
[V:2] A3GA2_B2 | 
[V:3] F2c2d3c | 
[V:4] F,4D,2G,2- | 
[V:1] D4E2D2 | 
[V:2] G8 | 
[V:3] _BA_B2c2_B2 | 
[V:4] G,F,E,D,C,2G,2 | 
[V:1] C2F4E2 | 
[V:2] z2c6 | 
[V:3] c2A2G4 | 
[V:4] E,2F,2C,4 | 
[V:1] F4z4 | 
[V:2] A2F2_B2A2 | 
[V:3] F2c2d2c2- | 
[V:4] z8 | 
[V:1] c4c2A2 | 
[V:2] F4z2c2 | 
[V:3] c_BAGF2A2 | 
[V:4] z8 | 
[V:1] _B4d2cB | 
[V:2] d2e2f4- | 
[V:3] G4F4 | 
[V:4] z4z2F,2- | 
[V:1] A4z2A2 | 
[V:2] f2e2f4 | 
[V:3] z2c2d2c2- | 
[V:4] F,G,A,2D,2F,2 | 
[V:1] G3FE2E2 | 
[V:2] e3fg2c2 | 
[V:3] c2A2G4 | 
[V:4] C,8 | 
[V:1] F4G2A2 | 
[V:2] A2B2c4 | 
[V:3] F4z2c2 | 
[V:4] D,4C,4 | 
[V:1] _B6A2 | 
[V:2] z2g4e2 | 
[V:3] dc_BA_B2c2 | 
[V:4] G,3F,G,2A,2 | 
[V:1] A2GFG4 | 
[V:2] f2d2e4 | 
[V:3] A2_B2G4 | 
[V:4] F,2G,2C,4 | 
[V:1] A3_Bc2c2 | 
[V:2] A4f4- | 
[V:3] F8 | 
[V:4] z8 | 
[V:1] d2c_B2AA2- | 
[V:2] f2e2d2c2 | 
[V:3] z8 | 
[V:4] z8 | 
[V:1] A2G2A4 | 
[V:2] _B4A2F2- | 
[V:3] z4z2c2 | 
[V:4] z4z2F,2 | 
[V:1] z4A3G/ F/ | 
[V:2] FGABc2d2 | 
[V:3] d2c2A2_B2 | 
[V:4] D,2F,4_B,,2 | 
[V:1] E4C4 | 
[V:2] c6_BA | 
[V:3] G4F2c2 | 
[V:4] C,4z2F,2 | 
[V:1] z2C2D2F2 | 
[V:2] _B2A4d2 | 
[V:3] d2c2A2_B2 | 
[V:4] D,2F,4_B,,2 | 
[V:1] E4F2G2- | 
[V:2] c6_BA | 
[V:3] G4F2c2 | 
[V:4] C,4z2C,2 | 
[V:1] GFEDE4 | 
[V:2] _B2c2G3A | 
[V:3] d2c6 | 
[V:4] G,2C,3_B,,C,2 | 
[V:1] D2F3ED2 | 
[V:2] _B3AF2f2- | 
[V:3] d3cA2_B2 | 
[V:4] _B,,C,D,E,F,2B,,2 | 
[V:1] C4D4 | 
[V:2] f2e2f2F2 | 
[V:3] G4F4 | 
[V:4] C,2E,2D,4 | 
[V:1] E4z2F2 | 
[V:2] G3A_B2A2 | 
[V:3] z2c2d2c2- | 
[V:4] C,4_B,,2F,2 | 
[V:1] G2A2_B3A | 
[V:2] e2f2d2_e2- | 
[V:3] c2_BAG2_B2- | 
[V:4] C,2F,2G,2_E,2- | 
[V:1] GFF4E2 | 
[V:2] edc3Bc2 | 
[V:3] B2A2G4 | 
[V:4] E,2F,2C,4 | 
[V:1] F8- | 
[V:2] A2d4c2 | 
[V:3] F8- | 
[V:4] F,8- | 
[V:1] F8 |]  
[V:2] c8 |]  
[V:3] F8 |]  
[V:4] F,8 |]  



